icons/circle/48/the-escapist.svg

<svg version="1.1" viewBox="0 0 48 48" xmlns="http://www.w3.org/2000/svg">
 <defs>
  <linearGradient id="bg" x2="0" y1="1" y2="47" gradientUnits="userSpaceOnUse">
   <stop stop-color="#a0a0a8" offset="0"/>
   <stop stop-color="#96969e" offset="1"/>
  </linearGradient>
 </defs>
 <path d="m36.31 5c5.859 4.062 9.688 10.831 9.688 18.5 0 12.426-10.07 22.5-22.5 22.5-7.669 0-14.438-3.828-18.5-9.688 1.037 1.822 2.306 3.499 3.781 4.969 4.085 3.712 9.514 5.969 15.469 5.969 12.703 0 23-10.298 23-23 0-5.954-2.256-11.384-5.969-15.469-1.469-1.475-3.147-2.744-4.969-3.781zm4.969 3.781c3.854 4.113 6.219 9.637 6.219 15.719 0 12.703-10.297 23-23 23-6.081 0-11.606-2.364-15.719-6.219 4.16 4.144 9.883 6.719 16.219 6.719 12.703 0 23-10.298 23-23 0-6.335-2.575-12.06-6.719-16.219z" opacity=".05"/>
 <path d="m41.28 8.781c3.712 4.085 5.969 9.514 5.969 15.469 0 12.703-10.297 23-23 23-5.954 0-11.384-2.256-15.469-5.969 4.113 3.854 9.637 6.219 15.719 6.219 12.703 0 23-10.298 23-23 0-6.081-2.364-11.606-6.219-15.719z" opacity=".1"/>
 <path d="m31.25 2.375c8.615 3.154 14.75 11.417 14.75 21.13 0 12.426-10.07 22.5-22.5 22.5-9.708 0-17.971-6.135-21.12-14.75a23 23 0 0 0 44.875-7 23 23 0 0 0-16-21.875z" opacity=".2"/>
 <path d="m24 1a23 23 0 0 1 20 11.642 46 46 0 0 1 0 22.716 23 23 0 0 1-20 11.642 23 23 0 0 1-20-11.642 46 46 0 0 1 0-22.716 23 23 0 0 1 20-11.642z" fill="url(#bg)"/>
 <path d="m23 1.0352a23 23 0 0 0-2 0.1875v6.7773h-4v-5.8809a23 23 0 0 0-2 0.74219v5.1387h-4v-2.9434a23 23 0 0 0-2 1.5449v1.3984h-1.4883a23 23 0 0 0-1.7246 2h3.2129c0 6-1 9-1 15s1 9 1 15h-1.5215a23 23 0 0 0 3.5215 2.9727v-0.97266h4v3.1621a23 23 0 0 0 2 0.73633v-3.8984h4v4.7793a23 23 0 0 0 2 0.16992v-4.9492h4v4.7773a23 23 0 0 0 2-0.35547v-4.4219h4v3.1387a23 23 0 0 0 2-0.96484v-2.1738h3.3145a23 23 0 0 0 2.6973-2.5605c0.061776-5.6165 0.98828-8.6377 0.98828-14.439 0-6-1-9-1-15h1.2285a23 23 0 0 0-3.2285-3.4199v1.4199h-4v-4.1973a23 23 0 0 0-2-0.96484v5.1621h-4v-6.4316a23 23 0 0 0-2-0.34766v6.7793h-4v-6.9648zm-12 8.9648h4c0 8-3 9-3 15s3 7 3 15h-4c0-6-1-9-1-15s1-9 1-15zm6 0h4c0 2.5-1.5 4.5-2.5 5.5l0.5 0.5 2-1c1-1 2-3 2-5h4c0 2 1 4 2 5l2 1 0.5-0.5c-1-1-2.5-3-2.5-5.5h4c0 8 3 9 3 15s-3 7-3 15h-4c0-2.5 1.5-4.5 2.5-5.5l-0.5-0.5-2 1c-1 1-2 3-2 5h-4c0-2-1-4-2-5l-2-1-0.5 0.5c1 1 2.5 3 2.5 5.5h-4c0-8-3-9-3-15s3-7 3-15zm18 0h4c0 6 1 9 1 15s-1 9-1 15h-4c0-8 3-9 3-15s-3-7-3-15zm-30 1.043a23 23 0 0 0-4 12.957 23 23 0 0 0 4 12.922v-25.879zm40 3.6445v18.65a23 23 0 0 0 2-9.3379 23 23 0 0 0-2-9.3125z" opacity=".1"/>
 <path d="m26 1.0996v5.9004h-4v-5.8984a23 23 0 0 0-2 0.25195v5.6465h-4v-4.5488a23 23 0 0 0-2 0.85742v3.6914h-4v-1.2285a23 23 0 0 0-3.4199 3.2285h1.4199c0 6-1 9-1 15s1 9 1 15h-1.3984a23 23 0 0 0 3.3984 3.2129v-1.2129h4v3.6797a23 23 0 0 0 2 0.85352v-4.5332h4v5.627a23 23 0 0 0 2 0.27344v-5.9004h4v5.8984a23 23 0 0 0 2-0.25195v-5.6465h4v4.5488a23 23 0 0 0 2-0.85742v-3.6914h4v1.2285a23 23 0 0 0 3.4199-3.2285h-1.4199c0-6 1-9 1-15s-1-9-1-15h1.3984a23 23 0 0 0-3.3984-3.2129v1.2129h-4v-3.6797a23 23 0 0 0-2-0.85352v4.5332h-4v-5.627a23 23 0 0 0-2-0.27344zm-16 7.9004h4c0 8-3 9-3 15s3 7 3 15h-4c0-6-1-9-1-15s1-9 1-15zm6 0h4c0 2.5-1.5 4.5-2.5 5.5l0.5 0.5 2-1c1-1 2-3 2-5h4c0 2 1 4 2 5l2 1 0.5-0.5c-1-1-2.5-3-2.5-5.5h4c0 8 3 9 3 15s-3 7-3 15h-4c0-2.5 1.5-4.5 2.5-5.5l-0.5-0.5-2 1c-1 1-2 3-2 5h-4c0-2-1-4-2-5l-2-1-0.5 0.5c1 1 2.5 3 2.5 5.5h-4c0-8-3-9-3-15s3-7 3-15zm18 0h4c0 6 1 9 1 15s-1 9-1 15h-4c0-8 3-9 3-15s-3-7-3-15zm-30 3.6738a23 23 0 0 0-3 11.326 23 23 0 0 0 3 11.301v-22.627zm40 0.025391v22.627a23 23 0 0 0 3-11.326 23 23 0 0 0-3-11.301z" fill="#222"/>
 <path d="m40.03 7.531c3.712 4.084 5.969 9.514 5.969 15.469 0 12.703-10.297 23-23 23-5.954 0-11.384-2.256-15.469-5.969 4.178 4.291 10.01 6.969 16.469 6.969 12.703 0 23-10.298 23-23 0-6.462-2.677-12.291-6.969-16.469z" opacity=".1"/>
</svg>

<?xml version="1.0" encoding="UTF-8" standalone="no"?>
<svg xmlns="http://www.w3.org/2000/svg" version="1.1" viewBox="0 0 48 48">
	<defs>
		<linearGradient id="bg" gradientUnits="userSpaceOnUse" x1="0" x2="0" y1="1" y2="47">
			<stop offset="0" stop-color="#a0a0a8"/>
			<stop offset="1" stop-color="#96969e"/>
		</linearGradient>
	</defs>
	<g>
		<path opacity=".05" d="m 36.31 5 c 5.859 4.062 9.688 10.831 9.688 18.5 c 0 12.426 -10.07 22.5 -22.5 22.5 c -7.669 0 -14.438 -3.828 -18.5 -9.688 c 1.037 1.822 2.306 3.499 3.781 4.969 c 4.085 3.712 9.514 5.969 15.469 5.969 c 12.703 0 23 -10.298 23 -23 c 0 -5.954 -2.256 -11.384 -5.969 -15.469 c -1.469 -1.475 -3.147 -2.744 -4.969 -3.781 z m 4.969 3.781 c 3.854 4.113 6.219 9.637 6.219 15.719 c 0 12.703 -10.297 23 -23 23 c -6.081 0 -11.606 -2.364 -15.719 -6.219 c 4.16 4.144 9.883 6.719 16.219 6.719 c 12.703 0 23 -10.298 23 -23 c 0 -6.335 -2.575 -12.06 -6.719 -16.219 z"/>
		<path opacity=".1" d="m 41.28 8.781 c 3.712 4.085 5.969 9.514 5.969 15.469 c 0 12.703 -10.297 23 -23 23 c -5.954 0 -11.384 -2.256 -15.469 -5.969 c 4.113 3.854 9.637 6.219 15.719 6.219 c 12.703 0 23 -10.298 23 -23 c 0 -6.081 -2.364 -11.606 -6.219 -15.719 z"/>
		<path opacity=".2" d="m 31.25 2.375 c 8.615 3.154 14.75 11.417 14.75 21.13 c 0 12.426 -10.07 22.5 -22.5 22.5 c -9.708 0 -17.971 -6.135 -21.12 -14.75 a 23 23 0 0 0 44.875 -7 a 23 23 0 0 0 -16 -21.875 z"/>
		<path fill="url(#bg)" d="M 24,1 A 23,23,0,0,1,44,12.642183308399453 46,46,0,0,1,44,35.35781669160055 23,23,0,0,1,24,47 23,23,0,0,1,4,35.35781669160055 46,46,0,0,1,4,12.642183308399453 23,23,0,0,1,24,1 z"/>
	</g>
	<path d="M 23 1.0351562 A 23 23 0 0 0 21 1.2226562 L 21 8 L 17 8 L 17 2.1191406 A 23 23 0 0 0 15 2.8613281 L 15 8 L 11 8 L 11 5.0566406 A 23 23 0 0 0 9 6.6015625 L 9 8 L 7.5117188 8 A 23 23 0 0 0 5.7871094 10 L 9 10 C 9 16 8 19 8 25 C 8 31 9 34 9 40 L 7.4785156 40 A 23 23 0 0 0 11 42.972656 L 11 42 L 15 42 L 15 45.162109 A 23 23 0 0 0 17 45.898438 L 17 42 L 21 42 L 21 46.779297 A 23 23 0 0 0 23 46.949219 L 23 42 L 27 42 L 27 46.777344 A 23 23 0 0 0 29 46.421875 L 29 42 L 33 42 L 33 45.138672 A 23 23 0 0 0 35 44.173828 L 35 42 L 38.314453 42 A 23 23 0 0 0 41.011719 39.439453 C 41.073495 33.822988 42 30.801793 42 25 C 42 19 41 16 41 10 L 42.228516 10 A 23 23 0 0 0 39 6.5800781 L 39 8 L 35 8 L 35 3.8027344 A 23 23 0 0 0 33 2.8378906 L 33 8 L 29 8 L 29 1.5683594 A 23 23 0 0 0 27 1.2207031 L 27 8 L 23 8 L 23 1.0351562 z M 11 10 L 15 10 C 15 18 12 19 12 25 C 12 31 15 32 15 40 L 11 40 C 11 34 10 31 10 25 C 10 19 11 16 11 10 z M 17 10 L 21 10 C 21 12.5 19.5 14.5 18.5 15.5 L 19 16 L 21 15 C 22 14 23 12 23 10 L 27 10 C 27 12 28 14 29 15 L 31 16 L 31.5 15.5 C 30.5 14.5 29 12.5 29 10 L 33 10 C 33 18 36 19 36 25 C 36 31 33 32 33 40 L 29 40 C 29 37.5 30.5 35.5 31.5 34.5 L 31 34 L 29 35 C 28 36 27 38 27 40 L 23 40 C 23 38 22 36 21 35 L 19 34 L 18.5 34.5 C 19.5 35.5 21 37.5 21 40 L 17 40 C 17 32 14 31 14 25 C 14 19 17 18 17 10 z M 35 10 L 39 10 C 39 16 40 19 40 25 C 40 31 39 34 39 40 L 35 40 C 35 32 38 31 38 25 C 38 19 35 18 35 10 z M 5 11.042969 A 23 23 0 0 0 1 24 A 23 23 0 0 0 5 36.921875 L 5 11.042969 z M 45 14.6875 L 45 33.337891 A 23 23 0 0 0 47 24 A 23 23 0 0 0 45 14.6875 z " opacity=".1"/>
	<path d="M 26 1.0996094 L 26 7 L 22 7 L 22 1.1015625 A 23 23 0 0 0 20 1.3535156 L 20 7 L 16 7 L 16 2.4511719 A 23 23 0 0 0 14 3.3085938 L 14 7 L 10 7 L 10 5.7714844 A 23 23 0 0 0 6.5800781 9 L 8 9 C 8 15 7 18 7 24 C 7 30 8 33 8 39 L 6.6015625 39 A 23 23 0 0 0 10 42.212891 L 10 41 L 14 41 L 14 44.679688 A 23 23 0 0 0 16 45.533203 L 16 41 L 20 41 L 20 46.626953 A 23 23 0 0 0 22 46.900391 L 22 41 L 26 41 L 26 46.898438 A 23 23 0 0 0 28 46.646484 L 28 41 L 32 41 L 32 45.548828 A 23 23 0 0 0 34 44.691406 L 34 41 L 38 41 L 38 42.228516 A 23 23 0 0 0 41.419922 39 L 40 39 C 40 33 41 30 41 24 C 41 18 40 15 40 9 L 41.398438 9 A 23 23 0 0 0 38 5.7871094 L 38 7 L 34 7 L 34 3.3203125 A 23 23 0 0 0 32 2.4667969 L 32 7 L 28 7 L 28 1.3730469 A 23 23 0 0 0 26 1.0996094 z M 10 9 L 14 9 C 14 17 11 18 11 24 C 11 30 14 31 14 39 L 10 39 C 10 33 9 30 9 24 C 9 18 10 15 10 9 z M 16 9 L 20 9 C 20 11.5 18.5 13.5 17.5 14.5 L 18 15 L 20 14 C 21 13 22 11 22 9 L 26 9 C 26 11 27 13 28 14 L 30 15 L 30.5 14.5 C 29.5 13.5 28 11.5 28 9 L 32 9 C 32 17 35 18 35 24 C 35 30 32 31 32 39 L 28 39 C 28 36.5 29.5 34.5 30.5 33.5 L 30 33 L 28 34 C 27 35 26 37 26 39 L 22 39 C 22 37 21 35 20 34 L 18 33 L 17.5 33.5 C 18.5 34.5 20 36.5 20 39 L 16 39 C 16 31 13 30 13 24 C 13 18 16 17 16 9 z M 34 9 L 38 9 C 38 15 39 18 39 24 C 39 30 38 33 38 39 L 34 39 C 34 31 37 30 37 24 C 37 18 34 17 34 9 z M 4 12.673828 A 23 23 0 0 0 1 24 A 23 23 0 0 0 4 35.300781 L 4 12.673828 z M 44 12.699219 L 44 35.326172 A 23 23 0 0 0 47 24 A 23 23 0 0 0 44 12.699219 z" fill="#222"/>
	<path opacity=".1" d="m 40.03 7.531 c 3.712 4.084 5.969 9.514 5.969 15.469 0 12.703 -10.297 23 -23 23 c -5.954 0 -11.384 -2.256 -15.469 -5.969 4.178 4.291 10.01 6.969 16.469 6.969 c 12.703 0 23 -10.298 23 -23 0 -6.462 -2.677 -12.291 -6.969 -16.469 z"/>
</svg>
